src/icons/reload.svg

<?xml version="1.0" encoding="UTF-8"?>
<svg xmlns="http://www.w3.org/2000/svg" xmlns:xlink="http://www.w3.org/1999/xlink" width="32" height="32" viewBox="0 0 32 32" version="1.1">
<g id="surface1">
<path style="fill:none;stroke-width:1.5;stroke-linecap:round;stroke-linejoin:round;stroke:rgb(0%,0%,0%);stroke-opacity:1;stroke-miterlimit:4;" d="M 16.022461 9.348633 L 21.014648 9.348633 L 21.014648 9.345703 M 2.985352 19.643555 L 2.985352 14.651367 M 2.985352 14.651367 L 7.977539 14.651367 M 2.985352 14.651367 L 6.164062 17.835938 C 8.25 19.918945 11.288086 20.733398 14.135742 19.96875 C 16.983398 19.207031 19.207031 16.983398 19.96875 14.135742 M 4.03125 9.864258 C 4.792969 7.016602 7.016602 4.792969 9.864258 4.03125 C 12.711914 3.266602 15.75 4.081055 17.833008 6.164062 L 21.014648 9.345703 M 21.014648 4.356445 L 21.014648 9.345703 " transform="matrix(1.333333,0,0,1.333333,0,0)"/>
</g>
</svg>

<svg role="img" viewBox="0 0 24 24" class="w-6 h-6" fill="none" stroke="currentColor" stroke-width="1.5" xmlns="http://www.w3.org/2000/svg"><path d="M16.023 9.348h4.992v-.001M2.985 19.644v-4.992m0 0h4.992m-4.993 0 3.181 3.183a8.25 8.25 0 0 0 13.803-3.7M4.031 9.865a8.25 8.25 0 0 1 13.803-3.7l3.181 3.182m0-4.991v4.99" stroke-linecap="round" stroke-linejoin="round"/></svg>
